img/svg/discord.svg

<svg width="48" height="48" viewBox="0 0 48 48"  xmlns="http://www.w3.org/2000/svg">
    <g clip-path="url(#clip0_66_2190)">
        <path
            d="M40.634 8.31115C37.5747 6.90738 34.294 5.87315 30.8638 5.28081C30.8013 5.26937 30.7389 5.29794 30.7067 5.35508C30.2848 6.10551 29.8175 7.08451 29.4902 7.854C25.8008 7.30166 22.1304 7.30166 18.5166 7.854C18.1893 7.06741 17.705 6.10551 17.2811 5.35508C17.249 5.29985 17.1866 5.27128 17.1241 5.28081C13.6958 5.87126 10.4151 6.90549 7.35387 8.31115C7.32737 8.32257 7.30465 8.34164 7.28958 8.36638C1.06678 17.6631 -0.6379 26.7313 0.19836 35.6871C0.202144 35.7309 0.22674 35.7728 0.260796 35.7995C4.36642 38.8145 8.34341 40.645 12.2466 41.8582C12.309 41.8773 12.3752 41.8544 12.415 41.803C13.3383 40.5421 14.1613 39.2127 14.867 37.8146C14.9086 37.7327 14.8688 37.6356 14.7837 37.6032C13.4783 37.108 12.2352 36.5042 11.0395 35.8185C10.9449 35.7633 10.9373 35.628 11.0243 35.5632C11.2759 35.3747 11.5276 35.1785 11.7679 34.9804C11.8114 34.9443 11.872 34.9366 11.9231 34.9595C19.7786 38.546 28.2831 38.546 36.0459 34.9595C36.097 34.9347 36.1576 34.9424 36.203 34.9785C36.4433 35.1766 36.6949 35.3747 36.9484 35.5632C37.0354 35.628 37.0298 35.7633 36.9352 35.8185C35.7394 36.5175 34.4964 37.108 33.189 37.6013C33.1039 37.6337 33.0661 37.7327 33.1077 37.8146C33.8285 39.2107 34.6515 40.5402 35.5578 41.8011C35.5957 41.8544 35.6637 41.8773 35.7262 41.8582C39.6483 40.645 43.6252 38.8145 47.7309 35.7995C47.7668 35.7728 47.7895 35.7328 47.7933 35.689C48.7942 25.3351 46.117 16.3413 40.6964 8.36827C40.6832 8.34164 40.6605 8.32257 40.634 8.31115ZM16.04 30.234C13.675 30.234 11.7263 28.0627 11.7263 25.3961C11.7263 22.7295 13.6372 20.5582 16.04 20.5582C18.4617 20.5582 20.3916 22.7486 20.3538 25.3961C20.3538 28.0627 18.4428 30.234 16.04 30.234ZM31.9895 30.234C29.6245 30.234 27.6758 28.0627 27.6758 25.3961C27.6758 22.7295 29.5867 20.5582 31.9895 20.5582C34.4113 20.5582 36.3411 22.7486 36.3033 25.3961C36.3033 28.0627 34.4113 30.234 31.9895 30.234Z"
            />
    </g>
    <defs>
        <clipPath id="clip0_66_2190">
            <rect width="48" height="48"/>
        </clipPath>
    </defs>
</svg>

<svg width="48" height="48" viewBox="0 0 48 48" xmlns="http://www.w3.org/2000/svg"><g clip-path="url(#clip0_66_2190)"><path d="M40.634 8.311a39.58 39.58 0 00-9.77-3.03.148.148 0 00-.157.074c-.422.75-.89 1.73-1.217 2.499a36.542 36.542 0 00-10.973 0 25.261 25.261 0 00-1.236-2.499.154.154 0 00-.157-.074 39.472 39.472 0 00-9.77 3.03.14.14 0 00-.064.055C1.067 17.663-.638 26.731.198 35.687a.165.165 0 00.063.113c4.105 3.015 8.082 4.845 11.986 6.058a.155.155 0 00.168-.055 28.453 28.453 0 002.452-3.988.152.152 0 00-.083-.212 26.207 26.207 0 01-3.745-1.785.154.154 0 01-.015-.255c.252-.188.504-.385.744-.583a.149.149 0 01.155-.02c7.856 3.586 16.36 3.586 24.123 0a.148.148 0 01.157.018c.24.199.492.397.745.585.087.065.082.2-.013.255a24.595 24.595 0 01-3.746 1.783.153.153 0 00-.081.214 31.937 31.937 0 002.45 3.986.152.152 0 00.168.057c3.922-1.213 7.9-3.043 12.005-6.058a.154.154 0 00.062-.111c1.001-10.354-1.676-19.348-7.097-27.32a.122.122 0 00-.062-.058zM16.04 30.234c-2.365 0-4.314-2.171-4.314-4.838 0-2.666 1.911-4.838 4.314-4.838 2.422 0 4.352 2.19 4.314 4.838 0 2.667-1.911 4.838-4.314 4.838zm15.95 0c-2.365 0-4.314-2.171-4.314-4.838 0-2.666 1.91-4.838 4.314-4.838 2.421 0 4.351 2.19 4.313 4.838 0 2.667-1.892 4.838-4.313 4.838z"/></g><defs><clipPath id="clip0_66_2190"><path d="M0 0h48v48H0z"/></clipPath></defs></svg>
